material/.icons/material/bottle-tonic-plus.svg

<svg xmlns="http://www.w3.org/2000/svg" viewBox="0 0 24 24"><path d="M13 4h-2l-1-2h4l-1 2m1 4V6h1V5H9v1h1v2c-2.76 0-5 2.24-5 5v9h14v-9c0-2.76-2.24-5-5-5m2 9h-3v3h-2v-3H8v-2h3v-3h2v3h3v2z"/></svg>

<?xml version="1.0" encoding="UTF-8"?><!DOCTYPE svg PUBLIC "-//W3C//DTD SVG 1.1//EN" "http://www.w3.org/Graphics/SVG/1.1/DTD/svg11.dtd"><svg xmlns="http://www.w3.org/2000/svg" xmlns:xlink="http://www.w3.org/1999/xlink" version="1.1" id="mdi-bottle-tonic-plus" width="24" height="24" viewBox="0 0 24 24"><path d="M13 4H11L10 2H14L13 4M14 8V6H15V5H9V6H10V8C7.24 8 5 10.24 5 13V22H19V13C19 10.24 16.76 8 14 8M16 17H13V20H11V17H8V15H11V12H13V15H16V17Z" /></svg>
